X: 57
T:Sally Gardens
R:reel
M:4/4
K:G


(3DEF|G2 DG B2 GB | dBeB dBAB | d2 Bd egdB | AcBA GEDE|
G2 DG B2 GB | dBeB dBAB | d2 Bd egeB | AcBA G2:|
Bc|dggf g2 dg | g2 bg agfg | eaag a2 eg | a2 bg agfg |
dggf g2 dg | g2 bg agfg | d2 Bd egeB | AcBA G2:|

